TV/Source/Nova Sport 2 - Original.svg

<svg height="3.704519mm" viewBox="0 0 8.399991 3.7045193" width="8.399991mm" xmlns="http://www.w3.org/2000/svg" xmlns:xlink="http://www.w3.org/1999/xlink"><clipPath id="a"><path d="m610.299 621.914h23.811v10.501h-23.811z"/></clipPath><clipPath id="b"><path d="m610.299 619.654h23.811v15.024h-23.811z"/></clipPath><g clip-path="url(#b)" transform="matrix(.35277777 0 0 -.35277777 -215.29992 223.10231)"><path d="m610.299 621.915h23.811v10.501h-23.811z" fill="#181818"/></g><g clip-path="url(#a)" transform="matrix(.35277777 0 0 -.35277777 -215.29992 223.10231)"><g transform="translate(612.4639 630.268)"><path d="m0 0h .471v-.246c.13.174.337.282.587.282.449 0 .757-.326.757-.772v-1.13h-.471v1.047c0 .25-.181.428-.435.428-.253 0-.438-.178-.438-.428v-1.047h-.471z" fill="#fff"/></g><g transform="translate(615.5446 628.7969)"><path d="m0 0c .29 0 .511.232.511.54 0 .304-.221.536-.511.536s-.507-.232-.507-.536c0-.308.217-.54.507-.54m0 1.507c.565 0 .996-.42.996-.967 0-.551-.431-.971-.996-.971s-.996.42-.996.971c0 .547.431.967.996.967" fill="#fff"/></g><g transform="translate(616.5229 630.268)"><path d="m0 0h .507l.515-1.373.518 1.373h.474l-.742-1.866h-.529z" fill="#fff"/></g><g transform="translate(619.5264 628.7969)"><path d="m0 0c .29 0 .511.232.511.54 0 .304-.221.536-.511.536s-.507-.232-.507-.536c0-.308.217-.54.507-.54m.511-.163c-.149-.167-.355-.268-.605-.268-.511 0-.902.42-.902.971 0 .547.391.967.902.967.25 0 .456-.101.605-.272v.236h.471v-1.866h-.471z" fill="#fff"/></g><g transform="translate(629.3342 624.83)"><path d="m0 0 1.462 1.215c.13.111.24.256.24.457 0 .191-.125.357-.421.357-.246 0-.422-.146-.422-.462l-.884.1c.05.754.547 1.145 1.306 1.145.768 0 1.305-.416 1.305-1.115 0-.456-.266-.833-.587-1.084l-.764-.613h1.376v-.753h-2.611z" fill="#4fc5d4"/></g><g transform="translate(613.2087 625.1916)"><path d="m0 0c .055-.251.216-.382.522-.382.262 0 .427.101.427.277 0 .602-1.738.195-1.738 1.476 0 .618.568 1.08 1.286 1.08.733 0 1.226-.397 1.311-.989l-.864-.176c-.055.261-.206.381-.477.381-.231 0-.371-.1-.371-.271 0-.552 1.737-.15 1.737-1.476 0-.618-.583-1.085-1.336-1.085-.758 0-1.286.412-1.361.994z" fill="#fff"/></g><g transform="translate(617.1459 625.9097)"><path d="m0 0c .291 0 .477.196.477.462 0 .271-.186.467-.477.467h-.698v-.929zm-1.552 1.682h1.552c.834 0 1.361-.522 1.361-1.23s-.527-1.205-1.361-1.205h-.698v-1.08h-.854z" fill="#fff"/></g><g transform="translate(620.6915 624.8099)"><path d="m0 0c .553 0 .974.447.974 1.025 0 .577-.421 1.024-.974 1.024s-.974-.447-.974-1.024c0-.578.421-1.025.974-1.025m0 2.832c1.05 0 1.858-.788 1.858-1.807 0-1.02-.808-1.809-1.858-1.809s-1.858.789-1.858 1.809c0 1.019.808 1.807 1.858 1.807" fill="#fff"/></g><g transform="translate(624.6085 626.0103)"><path d="m0 0c .256 0 .422.176.422.412 0 .241-.166.417-.422.417h-.703v-.829zm-.357-.778h-.346v-1.155h-.854v3.515h1.557c.799 0 1.306-.502 1.306-1.18 0-.492-.271-.889-.718-1.075l.818-1.26h-1.014z" fill="#fff"/></g><g transform="translate(627.1496 626.8389)"><path d="m0 0h-1.029v.753h2.912v-.753h-1.029v-2.762h-.854z" fill="#fff"/></g></g></svg>

<?xml version="1.0" encoding="UTF-8" standalone="no"?>
<!-- Created with Inkscape (http://www.inkscape.org/) -->

<svg
   xmlns:dc="http://purl.org/dc/elements/1.1/"
   xmlns:cc="http://creativecommons.org/ns#"
   xmlns:rdf="http://www.w3.org/1999/02/22-rdf-syntax-ns#"
   xmlns:svg="http://www.w3.org/2000/svg"
   xmlns="http://www.w3.org/2000/svg"
   xmlns:sodipodi="http://sodipodi.sourceforge.net/DTD/sodipodi-0.dtd"
   xmlns:inkscape="http://www.inkscape.org/namespaces/inkscape"
   width="8.399991mm"
   height="3.7045193mm"
   viewBox="0 0 8.399991 3.7045193"
   version="1.1"
   id="svg50578"
   inkscape:version="0.92.0 r15299"
   sodipodi:docname="Nova Sport 2 - Original.svg">
  <defs
     id="defs50572">
    <clipPath
       clipPathUnits="userSpaceOnUse"
       id="clipPath2698">
      <path
         d="m 610.299,621.914 h 23.811 v 10.501 h -23.811 z"
         id="path2696"
         inkscape:connector-curvature="0" />
    </clipPath>
    <clipPath
       clipPathUnits="userSpaceOnUse"
       id="clipPath2688">
      <path
         d="m 610.299,619.654 h 23.811 v 15.024 h -23.811 z"
         id="path2686"
         inkscape:connector-curvature="0" />
    </clipPath>
  </defs>
  <sodipodi:namedview
     id="base"
     pagecolor="#ffffff"
     bordercolor="#666666"
     borderopacity="1.0"
     inkscape:pageopacity="0.0"
     inkscape:pageshadow="2"
     inkscape:zoom="15.839192"
     inkscape:cx="15.312241"
     inkscape:cy="10.138278"
     inkscape:document-units="mm"
     inkscape:current-layer="layer1"
     showgrid="false"
     fit-margin-top="0"
     fit-margin-left="0"
     fit-margin-right="0"
     fit-margin-bottom="0"
     inkscape:window-width="1920"
     inkscape:window-height="1017"
     inkscape:window-x="-8"
     inkscape:window-y="-8"
     inkscape:window-maximized="1" />
  <metadata
     id="metadata50575">
    <rdf:RDF>
      <cc:Work
         rdf:about="">
        <dc:format>image/svg+xml</dc:format>
        <dc:type
           rdf:resource="http://purl.org/dc/dcmitype/StillImage" />
        <dc:title></dc:title>
      </cc:Work>
    </rdf:RDF>
  </metadata>
  <g
     inkscape:label="Layer 1"
     inkscape:groupmode="layer"
     id="layer1"
     transform="translate(-70.63929,-146.22512)">
    <g
       transform="matrix(0.35277777,0,0,-0.35277777,-144.66063,369.32743)"
       id="g2682">
      <g
         id="g2684"
         clip-path="url(#clipPath2688)">
        <path
           d="m 610.299,621.915 h 23.811 v 10.501 h -23.811 z"
           style="fill:#181818;fill-opacity:1;fill-rule:nonzero;stroke:none"
           id="path2690"
           inkscape:connector-curvature="0" />
      </g>
    </g>
    <g
       transform="matrix(0.35277777,0,0,-0.35277777,-144.66063,369.32743)"
       id="g2692">
      <g
         id="g2694"
         clip-path="url(#clipPath2698)">
        <g
           id="g2700"
           transform="translate(612.4639,630.268)">
          <path
             d="m 0,0 h 0.471 v -0.246 c 0.13,0.174 0.337,0.282 0.587,0.282 0.449,0 0.757,-0.326 0.757,-0.772 v -1.13 H 1.344 v 1.047 c 0,0.25 -0.181,0.428 -0.435,0.428 -0.253,0 -0.438,-0.178 -0.438,-0.428 V -1.866 H 0 Z"
             style="fill:#ffffff;fill-opacity:1;fill-rule:nonzero;stroke:none"
             id="path2702"
             inkscape:connector-curvature="0" />
        </g>
        <g
           id="g2704"
           transform="translate(615.5446,628.7969)">
          <path
             d="M 0,0 C 0.29,0 0.511,0.232 0.511,0.54 0.511,0.844 0.29,1.076 0,1.076 -0.29,1.076 -0.507,0.844 -0.507,0.54 -0.507,0.232 -0.29,0 0,0 m 0,1.507 c 0.565,0 0.996,-0.42 0.996,-0.967 0,-0.551 -0.431,-0.971 -0.996,-0.971 -0.565,0 -0.996,0.42 -0.996,0.971 0,0.547 0.431,0.967 0.996,0.967"
             style="fill:#ffffff;fill-opacity:1;fill-rule:nonzero;stroke:none"
             id="path2706"
             inkscape:connector-curvature="0" />
        </g>
        <g
           id="g2708"
           transform="translate(616.5229,630.268)">
          <path
             d="M 0,0 H 0.507 L 1.022,-1.373 1.54,0 H 2.014 L 1.272,-1.866 H 0.743 Z"
             style="fill:#ffffff;fill-opacity:1;fill-rule:nonzero;stroke:none"
             id="path2710"
             inkscape:connector-curvature="0" />
        </g>
        <g
           id="g2712"
           transform="translate(619.5264,628.7969)">
          <path
             d="M 0,0 C 0.29,0 0.511,0.232 0.511,0.54 0.511,0.844 0.29,1.076 0,1.076 -0.29,1.076 -0.507,0.844 -0.507,0.54 -0.507,0.232 -0.29,0 0,0 M 0.511,-0.163 C 0.362,-0.33 0.156,-0.431 -0.094,-0.431 c -0.511,0 -0.902,0.42 -0.902,0.971 0,0.547 0.391,0.967 0.902,0.967 0.25,0 0.456,-0.101 0.605,-0.272 V 1.471 H 0.982 V -0.395 H 0.511 Z"
             style="fill:#ffffff;fill-opacity:1;fill-rule:nonzero;stroke:none"
             id="path2714"
             inkscape:connector-curvature="0" />
        </g>
        <g
           id="g2716"
           transform="translate(629.3342,624.83)">
          <path
             d="m 0,0 1.462,1.215 c 0.13,0.111 0.24,0.256 0.24,0.457 0,0.191 -0.125,0.357 -0.421,0.357 -0.246,0 -0.422,-0.146 -0.422,-0.462 l -0.884,0.1 c 0.05,0.754 0.547,1.145 1.306,1.145 0.768,0 1.305,-0.416 1.305,-1.115 C 2.586,1.241 2.32,0.864 1.999,0.613 L 1.235,0 H 2.611 V -0.753 H 0 Z"
             style="fill:#4fc5d4;fill-opacity:1;fill-rule:nonzero;stroke:none"
             id="path2718"
             inkscape:connector-curvature="0" />
        </g>
        <g
           id="g2720"
           transform="translate(613.2087,625.1916)">
          <path
             d="m 0,0 c 0.055,-0.251 0.216,-0.382 0.522,-0.382 0.262,0 0.427,0.101 0.427,0.277 0,0.602 -1.738,0.195 -1.738,1.476 0,0.618 0.568,1.08 1.286,1.08 0.733,0 1.226,-0.397 1.311,-0.989 L 0.944,1.286 C 0.889,1.547 0.738,1.667 0.467,1.667 c -0.231,0 -0.371,-0.1 -0.371,-0.271 0,-0.552 1.737,-0.15 1.737,-1.476 0,-0.618 -0.583,-1.085 -1.336,-1.085 -0.758,0 -1.286,0.412 -1.361,0.994 z"
             style="fill:#ffffff;fill-opacity:1;fill-rule:nonzero;stroke:none"
             id="path2722"
             inkscape:connector-curvature="0" />
        </g>
        <g
           id="g2724"
           transform="translate(617.1459,625.9097)">
          <path
             d="M 0,0 C 0.291,0 0.477,0.196 0.477,0.462 0.477,0.733 0.291,0.929 0,0.929 H -0.698 V 0 Z M -1.552,1.682 H 0 c 0.834,0 1.361,-0.522 1.361,-1.23 0,-0.708 -0.527,-1.205 -1.361,-1.205 h -0.698 v -1.08 h -0.854 z"
             style="fill:#ffffff;fill-opacity:1;fill-rule:nonzero;stroke:none"
             id="path2726"
             inkscape:connector-curvature="0" />
        </g>
        <g
           id="g2728"
           transform="translate(620.6915,624.8099)">
          <path
             d="M 0,0 C 0.553,0 0.974,0.447 0.974,1.025 0.974,1.602 0.553,2.049 0,2.049 -0.553,2.049 -0.974,1.602 -0.974,1.025 -0.974,0.447 -0.553,0 0,0 m 0,2.832 c 1.05,0 1.858,-0.788 1.858,-1.807 0,-1.02 -0.808,-1.809 -1.858,-1.809 -1.05,0 -1.858,0.789 -1.858,1.809 0,1.019 0.808,1.807 1.858,1.807"
             style="fill:#ffffff;fill-opacity:1;fill-rule:nonzero;stroke:none"
             id="path2730"
             inkscape:connector-curvature="0" />
        </g>
        <g
           id="g2732"
           transform="translate(624.6085,626.0103)">
          <path
             d="M 0,0 C 0.256,0 0.422,0.176 0.422,0.412 0.422,0.653 0.256,0.829 0,0.829 H -0.703 V 0 Z M -0.357,-0.778 H -0.703 V -1.933 H -1.557 V 1.582 H 0 c 0.799,0 1.306,-0.502 1.306,-1.18 0,-0.492 -0.271,-0.889 -0.718,-1.075 l 0.818,-1.26 H 0.392 Z"
             style="fill:#ffffff;fill-opacity:1;fill-rule:nonzero;stroke:none"
             id="path2734"
             inkscape:connector-curvature="0" />
        </g>
        <g
           id="g2736"
           transform="translate(627.1496,626.8389)">
          <path
             d="M 0,0 H -1.029 V 0.753 H 1.883 V 0 H 0.854 V -2.762 H 0 Z"
             style="fill:#ffffff;fill-opacity:1;fill-rule:nonzero;stroke:none"
             id="path2738"
             inkscape:connector-curvature="0" />
        </g>
      </g>
    </g>
  </g>
</svg>
